Internet-is-hard/flexbox/images/five.svg

<svg width="300" height="300" xmlns="http://www.w3.org/2000/svg"><g fill="none" fill-rule="evenodd"><path fill="#C8C6FA" d="M0 0h300v300H0z"/><path d="M168.34 156.08c-.08-.32-.16-.56-.16-.72l-.16-.56c-.08-.32-.16-.56-.16-.64-.72-1.84-1.28-3.68-2.32-5.28l-.48-.64c-1.36-1.84-3.36-2.96-5.28-4l-.72-.24c-.56-.24-1.12-.4-1.6-.48-.32-.08-.56-.16-.88-.16l-.8-.16c-.24 0-.56-.08-.8-.08-.16-.08-.4-.08-.8-.08l-.72-.16c-.4 0-.64 0-.8-.08h-1.76c-.16-.08-.4-.08-.8-.08h-2.64c-.24 0-.48-.08-.72-.08-.32 0-.64-.08-.88-.08-.32 0-.72.08-.8 0-.24-.24-.08-.64-.08-.96.24-1.84.08-3.36.16-5.2v-1.28c0-.24-.08-1.04-.08-2.08 3.12 0 8-.08 12.72-.08h4.16c.24 0 .4.08.64.08 1.6-.24 4.4.72 4.64-1.6l.16-.8v-.48c.08-1.52-.24-2.88.08-4.4 0-.32.08-.64.08-.88.08-1.2 0-2.08-.96-2.64-1.36-.64-3.2.08-5.04-.16h-.72c-.56 0-.96-.08-1.52-.16h-15.92c-2.48-.32-4.88-.08-7.36 0l-.64.16c-1.84.8-1.36 3.44-1.36 5.12.08.24.08.48.08.88s0 .64-.08.8v1.68c0 1.68-.08 3.36 0 4.88v.56c0 .4 0 .72-.08.88v.56c0 1.92 0 3.76.08 5.68v.72c0 1.68-.24 3.44 0 5.04 0 .32.08.56.08.8.56 1.92 1.92 2.4 3.6 2.48h.88c.72-.08 1.52-.08 2.32 0h4c1.6.24 3.2 0 4.8 0 .24 0 .56.08.8.08 2.48.08 4.72 1.28 6.08 3.28l.4.8.24.72c.64 2.32.56 4.88-.64 7.04-.08.24-.24.48-.32.56-1.36 1.92-3.76 3.12-6.08 3.04h-.88c-2 0-4.08-.56-5.36-2.24-.16-.16-.24-.32-.32-.48a6.64 6.64 0 01-1.12-2.08l-.16-.72c0-.24-.08-.32-.08-.56l-.16-.72c-.08-1.2-.8-1.92-1.76-2.24-.16-.08-.4-.08-.64-.08-2.48.24-4.8-.16-7.28.16l-.56.24c-.88.56-1.36 1.28-1.44 2.32 0 .4 0 .64.08.8l.32 2.48.16.64c.24 1.2.48 2.24 1.12 3.28.24.56.56 1.12.8 1.52.4.96 1.04 1.92 1.84 2.88l.56.56c.88.88 1.84 1.68 2.8 2.32l.64.48c2.24 1.36 4.8 1.76 7.28 2.32h1.2c.72 0 1.44 0 2.16-.08h.72c2.32.08 4.56-.24 6.72-.96.24-.08.56-.08.8-.32.88-.24 1.6-.56 2.24-.96l.64-.4c.72-.4 1.36-.88 2-1.28l.72-.56c.64-.56 1.2-1.12 1.76-2 .16-.16.32-.4.4-.64.56-.64.88-1.36 1.28-2l.32-.72c.4-.88.64-1.44.88-2.32l.16-.8.24-1.12c0-.24.08-.32.08-.56.08-.08.08-.32.08-.64s0-.56.08-.72c0-.24-.08-.32-.08-.56.08-1.92.24-3.92-.08-5.84zm-4.48 6.24c.08 1.28-.4 2.48-1.04 3.52l-.32.72-.4.8-.8 1.2c-1.6 2-3.68 3.36-6 4.4l-1.36.4c-1.52.32-2.8.4-4.32.64h-.72c-.16.08-.4.08-.72.08-2.64-.08-5.28-.88-7.76-2.08l-.64-.48c-.8-.72-1.52-1.52-2.16-2.4l-.48-.64c-1.2-1.84-2-3.76-1.44-5.92.08-.4.8-.48 1.2-.16.24.24.32.48.32.88 0 1.76.56 3.36 1.6 4.72l.48.64c.64.88 1.36 1.6 2.24 2.24l.64.32c1.68.88 3.68 1.04 5.52 1.28.4 0 .64 0 .88-.08 1.36 0 2.56-.08 3.6-.32l1.12-.24c.32-.08.72-.08 1.04-.32 2.32-.64 4.24-2.16 5.92-4l.8-1.36.4-.72.24-.64c1.04-2 .88-4.32.56-6.48 0-.4 0-.64-.08-.88-.16-1.52-.64-2.8-1.52-3.92l-.48-.72c-.88-1.2-1.76-1.92-2.96-2.8-.24-.08-.4-.16-.64-.4l-.64-.4-1.52-.72-.72-.24-.8-.24c-.24 0-.48-.08-.72-.08-2.8-.24-5.52-.24-8.32-.48h-.8l-1.6.16h-.72c-.56 0-.88 0-1.44-.08-1.2-.08-.96-1.76-.88-2.8.08-.08.08-.32.08-.56 0-.24.08-.32 0-.56.08-.08.08-.32.08-.64v-.64c0-.08 0-.24.08-.32 0-1.28 0-2.64.08-4v-.8c.24-2.64.16-5.28.4-7.92v-2c0-.16.08-.32.16-.4 0-.4.24-.64.72-.64h4.8c.88 0 1.52 0 2.4-.08h.8c.72 0 1.52 0 2.24.08h8.4c.4 0 .64 0 .8-.08h2.4c.24 0 .64.08 1.2.16.64.24.8 1.12.24 1.36-.56.08-.96.16-1.2.16-.88.08-1.52.08-2.4.08h-.8c-2.64-.24-5.36-.16-8-.16h-3.12c-.16.08-.4.08-.72.08h-6.32v2.64l-.32 6.08c0 .24-.08.56-.08.88-.08 1.68-.08 3.28-.08 4.96h-.08c.08 1.2-.56 2.88.08 3.28.16.16.4.24.64.24.32.08.56.16.64.16.56 0 1.04-.08 1.6-.08h.8c2.64-.24 5.28.16 7.84.24.24 0 .48.08.8.16.16 0 .4.08.72.16.08 0 .32.08.64.16l.88.24c.88.32 1.6.56 2.32 1.12.16.08.4.16.72.4l.64.48c1.36.88 2.4 2 3.2 3.28.16.24.32.4.4.64.72 1.52 1.52 3.12 1.76 4.72 0 .24.08.48.08.72 0 1.04.16 2.16-.08 3.2v.8z" fill="#5D6063"/></g></svg>

<?xml version="1.0" encoding="UTF-8" standalone="no"?>
<svg width="300px" height="300px" viewBox="0 0 300 300" version="1.1" xmlns="http://www.w3.org/2000/svg" xmlns:xlink="http://www.w3.org/1999/xlink">
    <!-- Generator: Sketch 3.7.1 (28215) - http://www.bohemiancoding.com/sketch -->
    <title>five</title>
    <desc>Created with Sketch.</desc>
    <defs></defs>
    <g id="Page-1" stroke="none" stroke-width="1" fill="none" fill-rule="evenodd">
        <g id="example-mockup" transform="translate(-777.000000, -665.000000)">
            <g id="five" transform="translate(777.000000, 665.000000)">
                <rect id="Rectangle-70-Copy-3" fill="#C8C6FA" x="0" y="0" width="300" height="300"></rect>
                <path d="M168.34,156.08 C168.26,155.76 168.18,155.52 168.18,155.36 L168.02,154.8 C167.94,154.48 167.86,154.24 167.86,154.16 C167.14,152.32 166.58,150.48 165.54,148.88 L165.06,148.24 C163.7,146.4 161.7,145.28 159.78,144.24 L159.06,144 C158.5,143.76 157.94,143.6 157.46,143.52 C157.14,143.44 156.9,143.36 156.58,143.36 L155.78,143.2 C155.54,143.2 155.22,143.12 154.98,143.12 C154.82,143.04 154.58,143.04 154.18,143.04 L153.46,142.88 C153.06,142.88 152.82,142.88 152.66,142.8 L150.9,142.8 C150.74,142.72 150.5,142.72 150.1,142.72 L147.46,142.72 C147.22,142.72 146.98,142.64 146.74,142.64 C146.42,142.64 146.1,142.56 145.86,142.56 C145.54,142.56 145.14,142.64 145.06,142.56 C144.82,142.32 144.98,141.92 144.98,141.6 C145.22,139.76 145.06,138.24 145.14,136.4 L145.14,135.12 C145.14,134.88 145.06,134.08 145.06,133.04 C148.18,133.04 153.06,132.96 157.78,132.96 L161.94,132.96 C162.18,132.96 162.34,133.04 162.58,133.04 C164.18,132.8 166.98,133.76 167.22,131.44 L167.38,130.64 L167.38,130.16 C167.46,128.64 167.14,127.28 167.46,125.76 C167.46,125.44 167.54,125.12 167.54,124.88 C167.62,123.68 167.54,122.8 166.58,122.24 C165.22,121.6 163.38,122.32 161.54,122.08 L160.82,122.08 C160.26,122.08 159.86,122 159.3,121.92 L143.38,121.92 C140.9,121.6 138.5,121.84 136.02,121.92 L135.38,122.08 C133.54,122.88 134.02,125.52 134.02,127.2 C134.1,127.44 134.1,127.68 134.1,128.08 C134.1,128.48 134.1,128.72 134.02,128.88 L134.02,130.56 C134.02,132.24 133.94,133.92 134.02,135.44 L134.02,136 C134.02,136.4 134.02,136.72 133.94,136.88 L133.94,137.44 C133.94,139.36 133.94,141.2 134.02,143.12 L134.02,143.84 C134.02,145.52 133.78,147.28 134.02,148.88 C134.02,149.2 134.1,149.44 134.1,149.68 C134.66,151.6 136.02,152.08 137.7,152.16 L138.58,152.16 C139.3,152.08 140.1,152.08 140.9,152.16 L144.9,152.16 C146.5,152.4 148.1,152.16 149.7,152.16 C149.94,152.16 150.26,152.24 150.5,152.24 C152.98,152.32 155.22,153.52 156.58,155.52 L156.98,156.32 L157.22,157.04 C157.86,159.36 157.78,161.92 156.58,164.08 C156.5,164.32 156.34,164.56 156.26,164.64 C154.9,166.56 152.5,167.76 150.18,167.68 L149.3,167.68 C147.3,167.68 145.22,167.12 143.94,165.44 C143.78,165.28 143.7,165.12 143.62,164.96 C143.06,164.24 142.74,163.6 142.5,162.88 L142.34,162.16 C142.34,161.92 142.26,161.84 142.26,161.6 L142.1,160.88 C142.02,159.68 141.3,158.96 140.34,158.64 C140.18,158.56 139.94,158.56 139.7,158.56 C137.22,158.8 134.9,158.4 132.42,158.72 L131.86,158.96 C130.98,159.52 130.5,160.24 130.42,161.28 C130.42,161.68 130.42,161.92 130.5,162.08 L130.82,164.56 L130.98,165.2 C131.22,166.4 131.46,167.44 132.1,168.48 C132.34,169.04 132.66,169.6 132.9,170 C133.3,170.96 133.94,171.92 134.74,172.88 L135.3,173.44 C136.18,174.32 137.14,175.12 138.1,175.76 L138.74,176.24 C140.98,177.6 143.54,178 146.02,178.56 L147.22,178.56 C147.94,178.56 148.66,178.56 149.38,178.48 L150.1,178.48 C152.42,178.56 154.66,178.24 156.82,177.52 C157.06,177.44 157.38,177.44 157.62,177.2 C158.5,176.96 159.22,176.64 159.86,176.24 L160.5,175.84 C161.22,175.44 161.86,174.96 162.5,174.56 L163.22,174 C163.86,173.44 164.42,172.88 164.98,172 C165.14,171.84 165.3,171.6 165.38,171.36 C165.94,170.72 166.26,170 166.66,169.36 L166.98,168.64 C167.38,167.76 167.62,167.2 167.86,166.32 L168.02,165.52 L168.26,164.4 C168.26,164.16 168.34,164.08 168.34,163.84 C168.42,163.76 168.42,163.52 168.42,163.2 C168.42,162.88 168.42,162.64 168.5,162.48 C168.5,162.24 168.42,162.16 168.42,161.92 C168.5,160 168.66,158 168.34,156.08 L168.34,156.08 Z M163.86,162.32 C163.94,163.6 163.46,164.8 162.82,165.84 L162.5,166.56 L162.1,167.36 L161.3,168.56 C159.7,170.56 157.62,171.92 155.3,172.96 L153.94,173.36 C152.42,173.68 151.14,173.76 149.62,174 L148.9,174 C148.74,174.08 148.5,174.08 148.18,174.08 C145.54,174 142.9,173.2 140.42,172 L139.78,171.52 C138.98,170.8 138.26,170 137.62,169.12 L137.14,168.48 C135.94,166.64 135.14,164.72 135.7,162.56 C135.78,162.16 136.5,162.08 136.9,162.4 C137.14,162.64 137.22,162.88 137.22,163.28 C137.22,165.04 137.78,166.64 138.82,168 L139.3,168.64 C139.94,169.52 140.66,170.24 141.54,170.88 L142.18,171.2 C143.86,172.08 145.86,172.24 147.7,172.48 C148.1,172.48 148.34,172.48 148.58,172.4 C149.94,172.4 151.14,172.32 152.18,172.08 L153.3,171.84 C153.62,171.76 154.02,171.76 154.34,171.52 C156.66,170.88 158.58,169.36 160.26,167.52 L161.06,166.16 L161.46,165.44 L161.7,164.8 C162.74,162.8 162.58,160.48 162.26,158.32 C162.26,157.92 162.26,157.68 162.18,157.44 C162.02,155.92 161.54,154.64 160.66,153.52 L160.18,152.8 C159.3,151.6 158.42,150.88 157.22,150 C156.98,149.92 156.82,149.84 156.58,149.6 L155.94,149.2 L154.42,148.48 L153.7,148.24 L152.9,148 C152.66,148 152.42,147.92 152.18,147.92 C149.38,147.68 146.66,147.68 143.86,147.44 L143.06,147.44 L141.46,147.6 L140.74,147.6 C140.18,147.6 139.86,147.6 139.3,147.52 C138.1,147.44 138.34,145.76 138.42,144.72 C138.5,144.64 138.5,144.4 138.5,144.16 C138.5,143.92 138.58,143.84 138.5,143.6 C138.58,143.52 138.58,143.28 138.58,142.96 L138.58,142.32 C138.58,142.24 138.58,142.08 138.66,142 C138.66,140.72 138.66,139.36 138.74,138 L138.74,137.2 C138.98,134.56 138.9,131.92 139.14,129.28 L139.14,127.28 C139.14,127.12 139.22,126.96 139.3,126.88 C139.3,126.48 139.54,126.24 140.02,126.24 L144.82,126.24 C145.7,126.24 146.34,126.24 147.22,126.16 L148.02,126.16 C148.74,126.16 149.54,126.16 150.26,126.24 L158.66,126.24 C159.06,126.24 159.3,126.24 159.46,126.16 L161.86,126.16 C162.1,126.16 162.5,126.24 163.06,126.32 C163.7,126.56 163.86,127.44 163.3,127.68 C162.74,127.76 162.34,127.84 162.1,127.84 C161.22,127.92 160.58,127.92 159.7,127.92 L158.9,127.92 C156.26,127.68 153.54,127.76 150.9,127.76 L147.78,127.76 C147.62,127.84 147.38,127.84 147.06,127.84 L140.74,127.84 L140.74,130.48 L140.42,136.56 C140.42,136.8 140.34,137.12 140.34,137.44 C140.26,139.12 140.26,140.72 140.26,142.4 L140.18,142.4 C140.26,143.6 139.62,145.28 140.26,145.68 C140.42,145.84 140.66,145.92 140.9,145.92 C141.22,146 141.46,146.08 141.54,146.08 C142.1,146.08 142.58,146 143.14,146 L143.94,146 C146.58,145.76 149.22,146.16 151.78,146.24 C152.02,146.24 152.26,146.32 152.58,146.4 C152.74,146.4 152.98,146.48 153.3,146.56 C153.38,146.56 153.62,146.64 153.94,146.72 L154.82,146.96 C155.7,147.28 156.42,147.52 157.14,148.08 C157.3,148.16 157.54,148.24 157.86,148.48 L158.5,148.96 C159.86,149.84 160.9,150.96 161.7,152.24 C161.86,152.48 162.02,152.64 162.1,152.88 C162.82,154.4 163.62,156 163.86,157.6 C163.86,157.84 163.94,158.08 163.94,158.32 C163.94,159.36 164.1,160.48 163.86,161.52 L163.86,162.32 Z" id="5" fill="#5D6063"></path>
            </g>
        </g>
    </g>
</svg>
